!!!!SEGMENT: pl-kk--kk-i-83--006_anerio-giovanni-francesco--missa-pulchra-es-agnus-dei.krn
!!!cenid: 16xx:1345
!!!COM: Anerio, Giovanni Francesco
!!!COM-rismID: pe30000104
!!!CDT: 1569/07/07-1630/06/11
!!!CNT: Italian
!!!OPR: Missa pulchra es
!!!OTL: Agnus Dei
!!!OMV: 006
!!!PDT:
!!!AGN: Sacred; Mass
!!!SMS-siglum: PL-Kk
!!!SMS-shelfmark: Kk.I.83
!!!SMS-shelfwork: 001-006 M
!!!SMS-variant:
!!!SMS-altvar:
!!!NIFC-rismSourceID: 1001151647
!!!NIFC-islandoraID: pl-kk:2875
!!!URL-pdf-islandora: https://repozytorium.nifc.pl/islandora/object/pl-kk%3A2875/datastream/PDF/view
!!!URL-scan: https://polish.musicsources.pl/pl/lokalizacje/galeria/rekopisy/6143 @EN{Scan on Polish Music Herritage in Open Access Website} @PL{Skany w portalu Dziedzictwo Muzyki Polskiej w otwartym dostępie}
!!!ONB-nifc: UWAGA: części Mszy: 1. Kyrie, 2. Et in terra, 3. Patrem, 4. Sanctus, 5. Benedictus, 6. Agnus Dei
!!!AIN: 2 alto 2 bass 2 soprn 2 tenor
!!!key:
**kern	**text	**kern	**text	**kern	**text	**kern	**text	**kern	**text	**kern	**text	**kern	**text	**kern	**text
*part8	*part8	*part7	*part7	*part6	*part6	*part5	*part5	*part4	*part4	*part3	*part3	*part2	*part2	*part1	*part1
*staff8	*staff8	*staff7	*staff7	*staff6	*staff6	*staff5	*staff5	*staff4	*staff4	*staff3	*staff3	*staff2	*staff2	*staff1	*staff1
*Ibass	*	*Itenor	*	*Ialto	*	*Isoprn	*	*Ibass	*	*Itenor	*	*Ialto	*	*Isoprn	*
*ICvox	*	*ICvox	*	*ICvox	*	*ICvox	*	*ICvox	*	*ICvox	*	*ICvox	*	*ICvox	*
*I"Baſsus II.	*	*I"Tenor 2	*	*I"Altus 2.	*	*I"Cantus 2.	*	*I"Baſsus I.	*	*I"Tenor I.	*	*I"Altus I	*	*I"Cantus I.	*
*I'B 2	*	*I'T 2	*	*I'A 2	*	*I'C 2	*	*I'B 1	*	*I'T 1	*	*I'A 1	*	*I'C 1	*
*clefF4	*	*clefC4	*	*clefC3	*	*clefC1	*	*clefF4	*	*clefC4	*	*clefC3	*	*clefC1	*
*k[]	*	*k[]	*	*k[]	*	*k[]	*	*k[]	*	*k[]	*	*k[]	*	*k[]	*
*a:	*	*a:	*	*a:	*	*a:	*	*a:	*	*a:	*	*a:	*	*a:	*
*M2/1	*	*M2/1	*	*M2/1	*	*M2/1	*	*M2/1	*	*M2/1	*	*M2/1	*	*M2/1	*
*met(C|)	*	*met(C|)	*	*met(C|)	*	*met(C|)	*	*met(C|)	*	*met(C|)	*	*met(C|)	*	*met(C|)	*
*all\right	*	*all\right	*	*all\right	*	*all\right	*	*all\right	*	*all\right	*	*all\right	*	*all\right	*
=1-	=1-	=1-	=1-	=1-	=1-	=1-	=1-	=1-	=1-	=1-	=1-	=1-	=1-	=1-	=1-
!	!	!	!	!	!	!	!	!	!	!	!	!LO:TX:t=P:problem=kreska pseudotaktowa	!	!	!
00r	.	00r	.	00r	.	00r	.	1A	A-	2r	.	1r	.	0r	.
*	*	*	*	*	*	*	*	*	*	*2\right	*	*	*	*	*
!	!	!	!	!	!	!	!	!	!	!LO:TX:t=P:problem=kreska pseudotaktowa	!	!	!	!	!
.	.	.	.	.	.	.	.	.	.	2A\	A-	.	.	.	.
*	*	*	*	*	*	*	*	*2\right	*	*	*	*	*	*	*
.	.	.	.	.	.	.	.	2G#X\	-gnus	2B\	-gnus	1e	A-	.	.
!	!	!	!	!	!	!	!	!LO:TX:t=P:problem=kreska pseudotaktowa	!	!	!	!	!	!	!
.	.	.	.	.	.	.	.	2A\	De-	2c#X\	De-	.	.	.	.
=2-	=2-	=2-	=2-	=2-	=2-	=2-	=2-	=2-	=2-	=2-	=2-	=2-	=2-	=2-	=2-
*	*	*	*	*	*	*	*	*	*	*	*	*2\right	*	*	*
!	!	!	!	!	!	!	!	!	!	!	!	!	!	!LO:TX:t=P:problem=kreska pseudotaktowa	!
.	.	.	.	.	.	.	.	2D\	-i	2d\	-i	2f\	-gnus	1r	.
*	*	*	*	*	*	*	*	*	*ij	*	*	*	*	*	*
!	!	!	!	!	!	!	!	!	!	!LO:TX:t=P:problem=kreska pseudotaktowa	!	!LO:TX:t=P:problem=kreska pseudotaktowa	!	!	!
.	.	.	.	.	.	.	.	2E\	A-	2B\	.	2e\	De-	.	.
*	*	*	*	*	*	*	*	*	*	*	*ij	*	*	*	*
!	!	!	!	!	!	!	!	!LO:TX:t=P:problem=kreska pseudotaktowa	!	!	!	!	!	!	!
.	.	.	.	.	.	.	.	1F	-gnus	1A	A-	2c/	.	1a	A-
!	!	!	!	!	!	!	!	!	!	!	!	!LO:TX:t=P:problem=kreska pseudotaktowa	!	!	!
.	.	.	.	.	.	.	.	.	.	.	.	2d\	-i	.	.
=3-	=3-	=3-	=3-	=3-	=3-	=3-	=3-	=3-	=3-	=3-	=3-	=3-	=3-	=3-	=3-
*	*	*	*	*	*	*	*	*	*	*	*	*	*ij	*2\right	*
!	!	!LO:TX:t=P:problem=kreska pseudotaktowa	!	!LO:TX:t=P:problem=kreska pseudotaktowa	!	!LO:TX:t=P:problem=kreska pseudotaktowa	!	!	!	!	!	!	!	!	!
0r	.	0r	.	0r	.	0r	.	2E\	De-	2B\	-gnus	2.e\	A-	2g#X\	.
!	!	!	!	!	!	!	!	!	!	!LO:TX:t=P:problem=kreska pseudotaktowa	!	!	!	!LO:TX:t=P:problem=kreska pseudotaktowa	!
.	.	.	.	.	.	.	.	2A\	-i	2cny\	De-	.	.	2a\	.
*	*	*	*	*	*	*	*	*	*Xij	*	*	*	*	*	*
!	!	!	!	!	!	!	!	!	!	!	!	!LO:TX:a:t=P:problem=# above	!	!	!
.	.	.	.	.	.	.	.	.	.	.	.	4f#X\	.	.	.
*	*	*	*	*	*	*	*	*	*ij	*	*	*	*	*	*
.	.	.	.	.	.	.	.	2Gny\	A-	2B\	-i	2g\	.	2d/	-gnus
*	*	*	*	*	*	*	*	*	*	*	*	*	*	*	*
!	!	!	!	!	!	!	!	!LO:TX:t=P:problem=kreska pseudotaktowa	!	!	!	!LO:TX:t=P:problem=kreska pseudotaktowa	!	!	!
.	.	.	.	.	.	.	.	2E\	-gnus	2c#X\	A-	2G/	-gnus	2e/	.
=4-	=4-	=4-	=4-	=4-	=4-	=4-	=4-	=4-	=4-	=4-	=4-	=4-	=4-	=4-	=4-
*	*	*2\right	*	*	*	*	*	*	*	*	*	*	*	*	*
!LO:TX:t=P:problem=kreska pseudotaktowa	!	!	!	!	!	!	!	!	!	!	!	!LO:LB:g=original	!	!	!
1r	.	2.A\	A-	2r	.	0a	A-	1D	De-	2d\	-gnus	2A/	De-	1f	De-
!	!	!	!	!	!	!	!	!	!	!LO:TX:t=P:problem=kreska pseudotaktowa	!	!	!	!	!
.	.	.	.	2.A/	A-	.	.	.	.	2A/	De-	2d\	.	.	.
!	!	!LO:TX:t=P:problem=kreska pseudotaktowa	!	!	!	!	!	!	!	!	!	!	!	!	!
.	.	4B\	.	.	.	.	.	.	.	.	.	.	.	.	.
!	!	!	!	!	!	!	!	!LO:TX:t=P:problem=kreska pseudotaktowa	!	!	!	!LO:TX:t=P:problem=kreska pseudotaktowa	!	!LO:TX:t=P:problem=kreska pseudotaktowa	!
1AA	A-	4c#X\	.	.	.	.	.	1AA	-i	1A	-i	1c#X	-i	1e	-i
*	*	*	*	*	*	*	*	*	*Xij	*	*	*	*	*	*
.	.	4d\	.	4B/	-gnus	.	.	.	.	.	.	.	.	.	.
*	*	*	*	*2\right	*	*	*	*	*	*	*	*	*	*	*
!	!	!LO:TX:t=P:problem=kreska pseudotaktowa	!	!LO:TX:t=P:problem=kreska pseudotaktowa	!	!	!	!	!	!	!	!	!	!	!
.	.	2e\	-gnus	2c#X\	De-	.	.	.	.	.	.	.	.	.	.
=5-	=5-	=5-	=5-	=5-	=5-	=5-	=5-	=5-	=5-	=5-	=5-	=5-	=5-	=5-	=5-
*	*	*	*	*	*	*2\right	*	*	*	*	*	*	*	*	*
!	!	!	!	!	!	!	!	!	!	!LO:TX:t=P:problem=kreska pseudotaktowa	!	!	!	!	!
2BB/	-gnus	2d\	.	2d\	.	2g#X\	-gnus	0r	.	0r	.	0r	.	0r	.
!LO:TX:t=P:problem=kreska pseudotaktowa	!	!	!	!	!	!LO:TX:t=P:problem=kreska pseudotaktowa	!	!	!	!	!	!	!	!	!
2C#X/	De-	1A	De-	2.e\	.	2a\	De-	.	.	.	.	.	.	.	.
2D/	.	.	.	.	.	2f/	.	.	.	.	.	.	.	.	.
.	.	.	.	4d\	.	.	.	.	.	.	.	.	.	.	.
!LO:TX:t=P:problem=kreska pseudotaktowa	!	!LO:TX:t=P:problem=kreska pseudotaktowa	!	!	!	!	!	!	!	!	!	!	!	!	!
2BB-X/	.	2G/	.	1d\	.	2gny/	.	.	.	.	.	.	.	.	.
=6-	=6-	=6-	=6-	=6-	=6-	=6-	=6-	=6-	=6-	=6-	=6-	=6-	=6-	=6-	=6-
!	!	!	!	!	!	!	!	!LO:TX:t=P:problem=kreska pseudotaktowa	!	!	!	!	!	!LO:TX:t=P:problem=kreska pseudotaktowa	!
1AA	.	2F/	.	.	.	1a	.	1r	.	2r	.	2r	.	1r	.
!	!	!	!	!LO:TX:t=P:problem=kreska pseudotaktowa	!	!	!	!	!	!	!	!	!	!	!
.	.	2E/	.	2c#X\	-i	.	.	.	.	2.A\	A-	2.a\	A-	.	.
*	*	*	*	*	*	*	*	*	*ij	*	*	*	*	*	*ij
!LO:TX:t=P:problem=kreska pseudotaktowa	!	!LO:TX:t=P:problem=kreska pseudotaktowa	!	!	!	!LO:TX:t=P:problem=kreska pseudotaktowa	!	!	!	!	!	!	!	!	!
1D	-i	1D	-i	1d	.	1f#X	-i	1D	A-	.	.	.	.	1dd	A-
.	.	.	.	.	.	.	.	.	.	8B\L	.	4g\	.	.	.
.	.	.	.	.	.	.	.	.	.	8cny\J	.	.	.	.	.
!	!	!	!	!	!	!	!	!	!	!	!	!LO:TX:t=P:problem=kreska pseudotaktowa	!	!	!
.	.	.	.	.	.	.	.	.	.	4d\	.	2f#X\	.	.	.
!	!	!	!	!	!	!	!	!	!	!LO:TX:t=P:problem=kreska pseudotaktowa	!	!	!	!	!
.	.	.	.	.	.	.	.	.	.	4A\	-gnus	.	.	.	.
=7-	=7-	=7-	=7-	=7-	=7-	=7-	=7-	=7-	=7-	=7-	=7-	=7-	=7-	=7-	=7-
!	!	!	!	!LO:TX:t=P:problem=kreska pseudotaktowa	!	!	!	!	!	!	!	!	!	!	!
0r	.	0r	.	0r	.	0r	.	2E\	.	2e\	De-	2g\	.	2cc#X\	.
!	!	!	!	!	!	!	!	!LO:TX:t=P:problem=kreska pseudotaktowa	!	!	!	!	!	!LO:TX:t=P:problem=kreska pseudotaktowa	!
.	.	.	.	.	.	.	.	2F#X\	-gnus	2A\	-i	2.a\	-gnus	2dd\	.
.	.	.	.	.	.	.	.	2G\	De-	2d\	A-	.	.	2b\	-gnus
.	.	.	.	.	.	.	.	.	.	.	.	4g\	.	.	.
!	!	!	!	!	!	!	!	!	!	!LO:TX:t=P:problem=kreska pseudotaktowa	!	!	!	!	!
.	.	.	.	.	.	.	.	2E\	.	2G/	-gnus	1g\	De-	2cc#X\	.
=8-	=8-	=8-	=8-	=8-	=8-	=8-	=8-	=8-	=8-	=8-	=8-	=8-	=8-	=8-	=8-
!	!	!LO:TX:t=P:problem=kreska pseudotaktowa	!	!	!	!	!	!	!	!	!	!	!	!	!
*	*	*	*	*	*	*	*	*	*	*lig	*	*	*	*	*
!LO:TX:t=P:problem=kreska pseudotaktowa	!	!	!	!	!	!LO:TX:t=P:problem=kreska pseudotaktowa	!	!LO:LB:g=original	!	!LO:LB:g=original	!	!	!	!	!
1r	.	1r	.	2r	.	1r	.	1D	.	1A	De-	.	.	1dd	De-
*	*	*	*	*	*ij	*	*	*	*	*	*	*	*	*	*
.	.	.	.	2.d\	A-	.	.	.	.	.	.	2f#X\	.	.	.
*	*ij	*	*ij	*	*	*	*ij	*	*	*	*	*	*	*	*
!	!	!	!	!	!	!	!	!LO:TX:t=P:problem=kreska pseudotaktowa	!	!LO:TX:t=P:problem=kreska pseudotaktowa	!	!LO:TX:t=P:problem=kreska pseudotaktowa	!	!LO:TX:t=P:problem=kreska pseudotaktowa	!
1G	A-	1B	A-	.	.	1dd	A-	1GG	-i	1G	-i	1g	-i	1b	-i
*	*	*	*	*	*	*	*	*	*	*	*Xij	*	*	*	*
.	.	.	.	8e\L	.	.	.	.	.	.	.	.	.	.	.
.	.	.	.	8f\J	.	.	.	.	.	.	.	.	.	.	.
.	.	.	.	4g\	.	.	.	.	.	.	.	.	.	.	.
.	.	.	.	4d\	-gnus-	.	.	.	.	.	.	.	.	.	.
!	!	!	!	!LO:TX:t=P:problem=kreska pseudotaktowa	!	!	!	!	!	!	!	!	!	!	!
*	*	*	*	*	*	*	*	*	*	*Xlig	*	*	*	*	*
=9-	=9-	=9-	=9-	=9-	=9-	=9-	=9-	=9-	=9-	=9-	=9-	=9-	=9-	=9-	=9-
*2\right	*	*	*	*	*	*	*	*	*	*	*	*	*	*	*
2A\	.	2cny\	.	1f	-De-	2cc\	-gnus	0r	.	0r	.	0r	.	0r	.
!LO:TX:t=P:problem=kreska pseudotaktowa	!	!LO:TX:t=P::problem=kreska pseudotaktowa&colon;między nutą a kropką	!	!	!	!	!	!	!	!	!	!	!	!	!
2B\	-gnus	2.d\	-gnus	.	.	4b\	De-	.	.	.	.	.	.	.	.
!	!	!	!	!	!	!LO:TX:t=P:problem=kreska pseudotaktowa	!	!	!	!	!	!	!	!	!
.	.	.	.	.	.	4a\	.	.	.	.	.	.	.	.	.
2c\	De-	.	.	2e\	-i	2g/	.	.	.	.	.	.	.	.	.
.	.	4c\	.	.	.	.	.	.	.	.	.	.	.	.	.
!	!	!	!	!LO:LB:g=original	!	!	!	!	!	!	!	!	!	!	!
2A\	.	1c\	De-	4d\	A-	2f#X/	.	.	.	.	.	.	.	.	.
!	!	!	!	!LO:TX:t=P:problem=kreska pseudotaktowa	!	!	!	!	!	!	!	!	!	!	!
.	.	.	.	4cny\	-gnus	.	.	.	.	.	.	.	.	.	.
=10-	=10-	=10-	=10-	=10-	=10-	=10-	=10-	=10-	=10-	=10-	=10-	=10-	=10-	=10-	=10-
!	!	!	!	!	!	!LO:TX:t=P:problem=kreska pseudotaktowa	!	!LO:TX:t=P:problem=kreska pseudotaktowa	!	!	!	!	!	!LO:TX:t=P:problem=kreska pseudotaktowa	!
1G	.	.	.	1d	De-	0g	-i	1r	.	2r	.	4d\	A-	1r	.
.	.	.	.	.	.	.	.	.	.	.	.	8e\L	.	.	.
.	.	.	.	.	.	.	.	.	.	.	.	8fny\J	.	.	.
*	*	*	*	*	*	*	*	*	*	*	*ij	*	*	*	*
.	.	2B\	.	.	.	.	.	.	.	2.G/	A-	2.g\	.	.	.
!LO:TX:t=P:problem=kreska pseudotaktowa	!	!LO:TX:t=P:problem=kreska pseudotaktowa	!	!LO:TX:t=P:problem=kreska pseudotaktowa	!	!	!	!	!	!	!	!	!	!	!
1Cny	-i	1c	-i	1e	-i	.	.	1C	A-	.	.	.	.	1e	A-
*	*Xij	*	*	*	*	*	*	*	*	*	*	*	*	*	*
.	.	.	.	.	.	.	.	.	.	8A\L	.	4f\	.	.	.
.	.	.	.	.	.	.	.	.	.	8B\J	.	.	.	.	.
!	!	!	!	!	!	!	!	!	!	!LO:TX:t=P:problem=kreska pseudotaktowa	!	!LO:TX:t=P:problem=kreska pseudotaktowa	!	!	!
.	.	.	.	.	.	.	.	.	.	2c\	.	2e\	.	.	.
=11-	=11-	=11-	=11-	=11-	=11-	=11-	=11-	=11-	=11-	=11-	=11-	=11-	=11-	=11-	=11-
0r	.	0r	.	0r	.	0r	.	2D\	.	1B-X	-gnus	2d\	-gnus	2f/	.
!	!	!	!	!	!	!	!	!LO:TX:t=P:problem=kreska pseudotaktowa	!	!	!	!	!	!	!
.	.	.	.	.	.	.	.	2E\	-gnus	.	.	2G/	De-	2.gny/	.
.	.	.	.	.	.	.	.	2Fny\	De-	2A/	De-	2cny/	.	.	.
.	.	.	.	.	.	.	.	.	.	.	.	.	.	4f/	-gnus
!	!	!	!	!	!	!	!	!	!	!	!	!	!	!LO:LB:g=original	!
.	.	.	.	.	.	.	.	2D/	.	4G/	.	2B/	.	1f/	De-
!	!	!	!	!	!	!	!	!	!	!LO:TX:t=P:problem=kreska pseudotaktowa	!	!	!	!	!
.	.	.	.	.	.	.	.	.	.	4F/	.	.	.	.	.
=12-	=12-	=12-	=12-	=12-	=12-	=12-	=12-	=12-	=12-	=12-	=12-	=12-	=12-	=12-	=12-
*	*ij	*	*	*	*	*	*	*	*	*	*	*	*	*	*
!	!	!	!	!	!	!	!	!LO:TX:t=P:problem=kreska pseudotaktowa	!	!	!	!	!	!	!
1C	A-	2G/	A-	1g	A-	1cc	A-	1C	-i	1G	-i	0.c	-i	.	.
*	*	*	*	*	*	*	*	*	*Xij	*	*	*	*Xij	*	*
!	!	!	!	!	!	!	!	!	!	!	!	!	!	!LO:TX:t=P:problem=kreska pseudotaktowa	!
.	.	2.c\	.	.	.	.	.	.	.	.	.	.	.	2e/	-i
*	*	*	*	*	*	*	*	*	*ij	*	*	*	*	*	*
!LO:TX:t=P:problem=kreska pseudotaktowa	!	!	!	!LO:TX:t=P:problem=kreska pseudotaktowa	!	!LO:TX:t=P:problem=kreska pseudotaktowa	!	!	!	!LO:TX:t=P:problem=kreska pseudotaktowa	!	!	!	!	!
1F	-gnus	.	.	1f	.	1cc	-gnus	4FF/	A-	1A	A-	.	.	4a\	A-
.	.	4B\	.	.	.	.	.	4GG/	.	.	.	.	.	4b\	.
!	!	!LO:TX:t=P:problem=kreska pseudotaktowa	!	!	!	!	!	!	!	!	!	!	!	!	!
.	.	2A/	-gnus	.	.	.	.	4AA/	-gnus	.	.	.	.	4ccny\	.
!	!	!	!	!	!	!	!	!LO:TX:t=P:problem=kreska pseudotaktowa	!	!	!	!	!	!LO:TX:t=P:problem=kreska pseudotaktowa	!
.	.	.	.	.	.	.	.	4FF/	.	.	.	.	.	4dd\	.
=13-	=13-	=13-	=13-	=13-	=13-	=13-	=13-	=13-	=13-	=13-	=13-	=13-	=13-	=13-	=13-
!	!	!LO:LB:g=original	!	!	!	!	!	!	!	!	!	!LO:TX:t=P:problem=kreska pseudotaktowa	!	!	!
2E\	De-	2c\	De-	2g\	.	1cc	De-	2C/	De-	2G/	-gnus	.	.	2ee\	.
!	!	!	!	!	!	!	!	!LO:TX:t=P:problem=kreska pseudotaktowa	!	!	!	!	!	!	!
2F\	-i	1A	.	4f\	-gnus	.	.	2FF/	-i	2A/	De-	.	.	2.a\	-gnus-
*	*Xij	*	*	*	*	*	*	*	*Xij	*	*	*	*	*	*
.	.	.	.	4e\	.	.	.	.	.	.	.	.	.	.	.
*	*ij	*	*	*	*	*	*	*	*	*	*	*	*	*	*
!LO:LB:g=original	!	!	!	!LO:TX:t=P:problem=kreska pseudotaktowa	!	!	!	!	!	!LO:TX:t=P:problem=kreska pseudotaktowa	!	!	!	!	!
4D\	A-	.	.	1f	De-	1dd	-i	2r	.	1F	-i	2r	.	.	.
4E\	.	.	.	.	.	.	.	.	.	.	.	.	.	4g\	.
*	*	*	*	*	*	*	*	*	*ij	*	*	*	*ij	*	*
!	!	!	!	!	!	!	!	!LO:TX:t=P:problem=kreska pseudotaktowa	!	!	!	!	!	!	!
4F\	.	4D/	.	.	.	.	.	2D/	A-	.	.	2A/	A-	4a\	.
!LO:TX:t=P:problem=kreska pseudotaktowa	!	!LO:TX:t=P:problem=kreska pseudotaktowa	!	!	!	!	!	!	!	!	!	!	!	!LO:TX:t=P:problem=kreska pseudotaktowa	!
4D\	.	4d\	.	.	.	.	.	.	.	.	.	.	.	4b\	.
=14-	=14-	=14-	=14-	=14-	=14-	=14-	=14-	=14-	=14-	=14-	=14-	=14-	=14-	=14-	=14-
1A	gnus	2c\	-i	2e\	.	2ee\	A-	4AA/	.	2r	.	2.A/	-gnus	2cc\	.
.	.	.	.	.	.	.	.	4BB/	.	.	.	.	.	.	.
!	!	!	!	!	!	!LO:TX:t=P:problem=kreska pseudotaktowa	!	!	!	!	!	!	!	!	!
.	.	2.e\	A-	2A/	-i	2cc\	-gnus	4C/	-gnus	2.E/	A-	.	.	1a	-De-
!	!	!	!	!	!	!	!	!LO:TX:t=P:problem=kreska pseudotaktowa	!	!	!	!	!	!	!
.	.	.	.	.	.	.	.	4AA/	.	.	.	4c/	.	.	.
*	*	*	*	*	*	*	*	*lig	*	*	*	*	*	*	*
!LO:TX:t=P:problem=kreska pseudotaktowa	!	!	!	!	!	!	!	!	!	!	!	!	!	!	!
0E	De-	.	.	2B/	A-	0b	De-	1E	De-	.	.	0e	De-	.	.
.	.	8d\L	.	.	.	.	.	.	.	4F#X/	.	.	.	.	.
.	.	8c\J	.	.	.	.	.	.	.	.	.	.	.	.	.
!	!	!	!	!LO:TX:t=P:problem=kreska pseudotaktowa	!	!	!	!	!	!LO:TX:b:t=P:problem=# below	!	!	!	!	!
.	.	1B\	-gnus	2e\	gnus	.	.	.	.	4G#X/	.	.	.	4g#X/	.
!	!	!	!	!	!	!	!	!	!	!LO:TX:t=P:problem=kreska pseudotaktowa	!	!	!	!LO:TX:t=P:problem=kreska pseudotaktowa	!
.	.	.	.	.	.	.	.	.	.	4A/	.	.	.	4f#X/	.
=15-	=15-	=15-	=15-	=15-	=15-	=15-	=15-	=15-	=15-	=15-	=15-	=15-	=15-	=15-	=15-
.	.	.	.	1e	De-	.	.	1EE	.	2Bny\	-gnus	.	.	1g#X	.
!	!	!LO:TX:t=P:problem=kreska pseudotaktowa	!	!	!	!	!	!	!	!	!	!	!	!	!
.	.	2B\	De-	.	.	.	.	.	.	2E/	De-	.	.	.	.
*	*	*	*	*	*	*	*	*Xlig	*	*	*	*	*	*	*
!LO:TX:t=P:problem=kreska pseudotaktowa	!	!LO:TX:t=P:problem=kreska pseudotaktowa	!	!LO:TX:t=P:problem=kreska pseudotaktowa	!	!LO:TX:a:t=P:problem=# above	!	!LO:TX:t=P:problem=kreska pseudotaktowa	!	!LO:TX:t=P:problem=kreska pseudotaktowa	!	!LO:TX:t=P:problem=kreska pseudotaktowa	!	!LO:TX:t=P:problem=kreska pseudotaktowa	!
0AA	-i	0A	-i	0e	-i	0cc#X	-i	1AA	-i	1E	-i	1c#X	-i	1a	-i
*	*Xij	*	*Xij	*	*Xij	*	*Xij	*	*Xij	*	*Xij	*	*Xij	*	*Xij
=16-	=16-	=16-	=16-	=16-	=16-	=16-	=16-	=16-	=16-	=16-	=16-	=16-	=16-	=16-	=16-
!	!	!	!	!	!	!LO:TX:t=P:problem=kreska pseudotaktowa	!	!	!	!	!	!	!	!	!
.	.	.	.	.	.	.	.	2r	.	2E/	Qui	2r	.	2r	.
!	!	!	!	!	!	!	!	!	!	!	!	!LO:TX:b:t=P:problem=# below	!	!	!
.	.	.	.	.	.	.	.	2AA/	Qui	1A	tol-	2c#X/	qui	2a\	Qui
!	!	!	!	!	!	!LO:LB:g=original	!	!LO:TX:t=P:problem=kreska pseudotaktowa	!	!	!	!LO:TX:t=P:problem=kreska pseudotaktowa	!	!LO:TX:t=P:problem=kreska pseudotaktowa	!
2r	.	2r	.	2r	.	4r	.	1D	tol-	.	.	1d	tol-	1a	tol-
.	.	.	.	.	.	4a\	qui	.	.	.	.	.	.	.	.
!LO:TX:t=P:problem=kreska pseudotaktowa	!	!	!	!	!	!LO:TX:t=P:problem=kreska pseudotaktowa	!	!	!	!	!	!	!	!	!
2D/	qui	4A/	qui	2f#X\	qui	2dd\	tol-	.	.	2.D/	-lis	.	.	.	.
.	.	4.d\	tol-	.	.	.	.	.	.	.	.	.	.	.	.
=17-	=17-	=17-	=17-	=17-	=17-	=17-	=17-	=17-	=17-	=17-	=17-	=17-	=17-	=17-	=17-
!	!	!	!	!	!	!	!	!	!	!	!	!LO:LB:g=original	!	!	!
1G	tol-	.	.	2.g\	tol-	2dd\	-lis	2GG/	-lis	.	.	2d\	-lis	2b\	-lis
.	.	8c\L	.	.	.	.	.	.	.	.	.	.	.	.	.
*	*	*	*	*	*	*	*	*	*	*	*ij	*	*	*	*
.	.	8B\	.	.	.	.	.	.	.	4D/	Qui	.	.	.	.
.	.	8A\J	.	.	.	.	.	.	.	.	.	.	.	.	.
*	*	*	*	*	*	*	*	*	*ij	*	*	*	*ij	*	*ij
!	!	!	!	!	!	!LO:TX:t=P:problem=kreska pseudotaktowa	!	!	!	!LO:TX:t=P:problem=kreska pseudotaktowa	!	!	!	!	!
!	!	!	!	!	!	!	!	!	!	!LO:LB:g=original	!	!	!	!	!
.	.	2B\	-lis	.	.	2dd\	pec-	2GG/	Qui	2Gny/	tol-	2d\	qui	2b\	Qui
!	!	!	!	!LO:TX:t=P:problem=kreska pseudotaktowa	!	!	!	!	!	!	!	!	!	!	!
.	.	.	.	4f#y\	.	.	.	.	.	.	.	.	.	.	.
!LO:TX:t=P:problem=kreska pseudotaktowa	!	!LO:TX:t=P:problem=kreska pseudotaktowa	!	!	!	!	!	!	!	!	!	!	!	!	!
1C	-lis	1c	.	4e\	.	1ccny	-ca-	1C	tol-	1G	-lis	2e\	.	1gny	tol-
*	*	*	*	*	*	*	*	*	*	*	*Xij	*	*	*	*
.	.	.	.	4c\	.	.	.	.	.	.	.	.	.	.	.
.	.	.	.	2e\	-lis	.	.	.	.	.	.	2.cny/	tol-	.	.
=18-	=18-	=18-	=18-	=18-	=18-	=18-	=18-	=18-	=18-	=18-	=18-	=18-	=18-	=18-	=18-
!	!	!	!	!	!	!	!	!LO:TX:t=P:problem=kreska pseudotaktowa	!	!LO:TX:t=P:problem=kreska pseudotaktowa	!	!	!	!LO:TX:t=P:problem=kreska pseudotaktowa	!
2r	.	2r	.	2fny\	.	2cc\	-ta	1FF	-lis	1r	.	.	.	1a	-lis
*	*	*	*	*	*	*	*	*	*Xij	*	*	*	*	*	*Xij
.	.	.	.	.	.	.	.	.	.	.	.	4B/	.	.	.
!LO:TX:t=P:problem=kreska pseudotaktowa	!	!	!	!	!	!LO:TX:t=P:problem=kreska pseudotaktowa	!	!	!	!	!	!	!	!	!
2F\	pec-	2A/	pec-	4r	.	2cc\	pec-	.	.	.	.	2A/	-lis	.	.
*	*	*	*	*	*	*	*	*	*	*	*	*	*Xij	*	*
!	!	!	!	!LO:TX:t=P:problem=kreska pseudotaktowa	!	!	!	!	!	!	!	!	!	!	!
.	.	.	.	4a\	pec-	.	.	.	.	.	.	.	.	.	.
!	!	!	!	!	!	!	!	!	!	!	!	!LO:TX:t=P:problem=kreska pseudotaktowa	!	!	!
4G\	-ca-	4d\	-ca-	4g\	-ca-	4b-X\	-ca-	1r	.	2r	.	1r	.	1r	.
4B-X\	-ta	4d\	-ta	4d\	-ta	4g\	-ta	.	.	.	.	.	.	.	.
!	!	!LO:TX:t=P:problem=kreska pseudotaktowa	!	!	!	!LO:TX:t=P:problem=kreska pseudotaktowa	!	!	!	!	!	!	!	!	!
2A\	mun-	2c#X\	mun-	2e\	mun-	2a\	mun-	.	.	2A/	pec-	.	.	.	.
=19-	=19-	=19-	=19-	=19-	=19-	=19-	=19-	=19-	=19-	=19-	=19-	=19-	=19-	=19-	=19-
!LO:TX:t=P:problem=kreska pseudotaktowa	!	!	!	!LO:TX:t=P:problem=kreska pseudotaktowa	!	!	!	!	!	!	!	!	!	!	!
1D	-di	1d	-di	1f#X	-di	1a	-di	2r	.	4c\	-ca-	2r	.	2r	.
.	.	.	.	.	.	.	.	.	.	4G/	-ta	.	.	.	.
!	!	!	!	!	!	!	!	!LO:TX:t=P:problem=kreska pseudotaktowa	!	!LO:TX:t=P:problem=kreska pseudotaktowa	!	!	!	!LO:TX:t=P:problem=kreska pseudotaktowa	!
.	.	.	.	.	.	.	.	2D/	pec-	2A/	mun-	2d\	pec-	2f#X/	pec-
!	!	!LO:TX:t=P:problem=kreska pseudotaktowa	!	!	!	!LO:TX:t=P:problem=kreska pseudotaktowa	!	!LO:LB:g=original	!	!	!	!	!	!LO:LB:g=original	!
1r	.	1r	.	1r	.	1r	.	4C/	-ca-	1G	-di	4e\	-ca-	4g/	-ca-
.	.	.	.	.	.	.	.	4E\	-ta	.	.	4c#X\	-ta	4g/	-ta
!	!	!	!	!	!	!	!	!	!	!	!	!	!	!LO:TX:t=P:problem=kreska pseudotaktowa	!
.	.	.	.	.	.	.	.	2D/	mun-	.	.	2d\	mun-	2f#X/	mun-
=20-	=20-	=20-	=20-	=20-	=20-	=20-	=20-	=20-	=20-	=20-	=20-	=20-	=20-	=20-	=20-
!	!	!	!	!	!	!	!	!	!	!LO:TX:t=P:problem=za xml-owcem. Niezgodność w pionach z użyciem pauzy 1r	!	!	!	!	!
!	!	!	!LO:N:vis=1	!	!	!	!	!LO:TX:t=P:problem=kreska pseudotaktowa	!	!	!	!LO:TX:t=P:problem=kreska pseudotaktowa	!	!	!
2r	.	2r	.	2r	.	2r	.	1GG	-di	0r	.	1d	-di	1g	-di
*	*	*	*ij	*	*ij	*	*	*	*	*	*	*	*	*	*
!LO:TX:t=P:problem=kreska pseudotaktowa	!	!LO:TX:t=P:problem=kreska pseudotaktowa	!	!LO:TX:t=P:problem=kreska pseudotaktowa	!	!LO:TX:t=P:problem=kreska pseudotaktowa	!	!	!	!	!	!	!	!	!
2G\	pec-	2B\	pec-	2d\	pec-	2g\	pec-	.	.	.	.	.	.	.	.
!	!	!	!	!	!	!	!	!	!	!	!	!	!	!LO:TX:t=P:problem=kreska pseudotaktowa	!
4F\	-ca-	4cny\	-ca-	4fny\	-ca-	4a\	-ca-	1r	.	.	.	2r	.	1r	.
4A\	-ta	4c\	-ta	4g\	-ta	4cc\	-ta	.	.	.	.	.	.	.	.
!LO:TX:t=P:problem=kreska pseudotaktowa	!	!LO:TX:t=P:problem=kreska pseudotaktowa	!	!LO:LB:g=original	!	!LO:TX:t=P:problem=kreska pseudotaktowa	!	!	!	!	!	!	!	!	!
2G\	mun-	2d\	mun-	2g\	mun-	2bny\	mun-	.	.	.	.	2d\	Mi-	.	.
=21-	=21-	=21-	=21-	=21-	=21-	=21-	=21-	=21-	=21-	=21-	=21-	=21-	=21-	=21-	=21-
!	!	!LO:LB:g=original	!	!LO:TX:t=P:problem=kreska pseudotaktowa	!	!LO:TX:t=P:problem=kreska pseudotaktowa	!	!	!	!	!	!	!	!	!
1C	-di	1c	-di	1e	-di	1cc	-di	2r	.	4r	.	2g\	.	2r	.
*	*	*	*Xij	*	*Xij	*	*	*	*	*	*	*	*	*	*
.	.	.	.	.	.	.	.	.	.	2G/	Mi-	.	.	.	.
!	!	!	!	!	!	!	!	!LO:TX:t=P:problem=kreska pseudotaktowa	!	!	!	!LO:TX:t=P:problem=kreska pseudotaktowa	!	!	!
.	.	.	.	.	.	.	.	2C/	Mi-	.	.	2e\	-ſe-	1g	Mi-
!	!	!	!	!	!	!	!	!	!	!LO:TX:t=P:problem=kreska pseudotaktowa	!	!	!	!	!
.	.	.	.	.	.	.	.	.	.	4c\	.	.	.	.	.
!LO:TX:t=P:problem=kreska pseudotaktowa	!	!	!	!	!	!	!	!	!	!	!	!	!	!	!
00r	.	0r	.	1r	.	00r	.	2G\	-ſe-	2B\	-ſe-	2d\	-re-	.	.
!	!	!	!	!	!	!	!	!	!	!	!	!	!	!LO:TX:t=P:problem=kreska pseudotaktowa	!
.	.	.	.	.	.	.	.	2E\	-re-	1c\	-re-	2e\	-re	2g/	-ſe-
=22-	=22-	=22-	=22-	=22-	=22-	=22-	=22-	=22-	=22-	=22-	=22-	=22-	=22-	=22-	=22-
*	*	*	*	*	*	*	*	*	*	*	*	*lig	*	*	*
.	.	.	.	0r	.	.	.	2F\	-re	.	.	1d	no-	2a\	-re-
!	!	!	!	!	!	!	!	!LO:TX:t=P:problem=kreska pseudotaktowa	!	!	!	!	!	!	!
.	.	.	.	.	.	.	.	2G\	.	2.B\	-re	.	.	4g/	.
*	*	*	*	*	*	*	*	*	*	*	*	*	*	*	*ij
!	!	!	!	!	!	!	!	!	!	!	!	!	!	!LO:TX:t=P:problem=zbędny znak powtórzenia tekstu	!
!	!	!	!	!	!	!	!	!	!	!	!	!	!	!LO:TX:t=P:problem=kreska pseudotaktowa	!
.	.	.	.	.	.	.	.	.	.	.	.	.	.	4fny/	.
!	!	!LO:TX:t=P:problem=kreska pseudotaktowa	!	!	!	!	!	!	!	!	!	!	!	!	!
.	.	1r	.	.	.	.	.	1A	no-	.	.	1cny	.	2e/	.
.	.	.	.	.	.	.	.	.	.	4A/	.	.	.	.	.
.	.	.	.	.	.	.	.	.	.	1A\	no-	.	.	2e/	-re
*	*	*	*	*	*	*	*	*	*	*	*	*Xlig	*	*	*Xij
=23-	=23-	=23-	=23-	=23-	=23-	=23-	=23-	=23-	=23-	=23-	=23-	=23-	=23-	=23-	=23-
*	*	*	*	*	*	*	*	*	*	*	*	*lig	*	*	*
.	.	2r	.	2B/	Mi-	.	.	1E	.	.	.	1B	-bis	1e	no-
!	!	!	!	!	!	!	!	!	!	!LO:TX:b:t=P:problem=# below	!	!	!	!	!
.	.	2E/	Mi-	2.e\	-ſe-	.	.	.	.	2G#X/	-bis	.	.	.	.
!	!	!LO:TX:t=P:problem=kreska pseudotaktowa	!	!	!	!	!	!LO:TX:t=P:problem=kreska pseudotaktowa	!	!LO:TX:t=P:problem=kreska pseudotaktowa	!	!LO:TX:t=P:problem=kreska pseudotaktowa	!	!LO:TX:t=P:problem=kreska pseudotaktowa	!
2r	.	1A	-ſe-	.	.	4r	.	1AA	-bis	1A	.	1c	.	1e	-bis
.	.	.	.	4A/	.	2e/	Mi-	.	.	.	.	.	.	.	.
2AA/	Mi-	.	.	4c\	.	.	.	.	.	.	.	.	.	.	.
!	!	!	!	!LO:TX:t=P:problem=kreska pseudotaktowa	!	!	!	!	!	!	!	!	!	!	!
.	.	.	.	4d\	.	4a\	-ſe-	.	.	.	.	.	.	.	.
!LO:TX:t=P:problem=kreska pseudotaktowa	!	!	!	!	!	!LO:TX:t=P:problem=kreska pseudotaktowa	!	!	!	!	!	!	!	!	!
*	*	*	*	*	*	*	*	*	*	*	*	*Xlig	*	*	*
=24-	=24-	=24-	=24-	=24-	=24-	=24-	=24-	=24-	=24-	=24-	=24-	=24-	=24-	=24-	=24-
!	!	!	!	!	!	!	!	!	!	!	!	!LO:TX:a:t=4	!	!	!
2E\	-ſe-	2B\	-re-	2e\	-re-	2g#X\	-re-	00r	.	00r	.	00r	.	00r	.
!LO:TX:t=P:problem=kreska pseudotaktowa	!	!	!	!	!	!LO:TX:t=P:problem=kreska pseudotaktowa	!	!	!	!	!	!	!	!	!
2AA/	-re-	2c\	-re	1f	.	2a\	-re	.	.	.	.	.	.	.	.
!LO:LB:g=original	!	!	!	!	!	!	!	!	!	!	!	!	!	!	!
2BBny/	-re	2d\	no-	.	.	1g#	no-	.	.	.	.	.	.	.	.
!LO:TX:t=P:problem=kreska pseudotaktowa	!	!	!	!	!	!	!	!	!	!	!	!	!	!	!
2C/	no-	4c\	.	2.e\	-re	.	.	.	.	.	.	.	.	.	.
!	!	!LO:TX:t=P:problem=kreska pseudotaktowa	!	!	!	!	!	!	!	!	!	!	!	!	!
.	.	4B\	.	.	.	.	.	.	.	.	.	.	.	.	.
=25-	=25-	=25-	=25-	=25-	=25-	=25-	=25-	=25-	=25-	=25-	=25-	=25-	=25-	=25-	=25-
!	!	!	!	!	!	!LO:TX:t=P:problem=kreska pseudotaktowa	!	!	!	!	!	!	!	!	!
1D	.	0A	-bis	.	.	1fny	.	.	.	.	.	.	.	.	.
.	.	.	.	4d\	.	.	.	.	.	.	.	.	.	.	.
.	.	.	.	1d	no-	.	.	.	.	.	.	.	.	.	.
!LO:TX:t=P:problem=kreska pseudotaktowa	!	!	!	!	!	!LO:TX:t=P:problem=kreska pseudotaktowa	!	!	!	!	!	!	!	!	!
1AA	.	.	.	.	.	1e	-bis	.	.	.	.	.	.	.	.
!	!	!	!	!LO:TX:t=P:problem=kreska pseudotaktowa	!	!	!	!	!	!	!	!	!	!	!
.	.	.	.	2c#X\	-bis	.	.	.	.	.	.	.	.	.	.
=26-	=26-	=26-	=26-	=26-	=26-	=26-	=26-	=26-	=26-	=26-	=26-	=26-	=26-	=26-	=26-
*	*	*	*	*	*	*	*ij	*	*	*	*	*	*	*	*
!LO:TX:t=P:problem=kreska pseudotaktowa	!	!LO:TX:t=P:problem=kreska pseudotaktowa	!	!	!	!LO:LB:g=original	!	!	!	!	!	!	!	!	!
1D	-bis	1A	.	1d	.	4f#X/	Mi-	2r	.	2r	.	2r	.	2r	.
.	.	.	.	.	.	2a\	.	.	.	.	.	.	.	.	.
*	*	*	*	*	*	*	*	*	*ij	*	*	*	*	*	*
!	!	!	!	!	!	!	!	!	!	!	!	!LO:TX:t=P:problem=kreska pseudotaktowa	!	!	!
!	!	!	!	!	!	!	!	!LO:TX:t=P:problem=kreska pseudotaktowa	!	!	!	!LO:TX:a:t=P:problem=# above	!	!	!
.	.	.	.	.	.	.	.	2D/	Mi-	2A/	Mi-	2f#X\	Mi-	1dd	Mi-
!	!	!	!	!	!	!LO:TX:t=P:problem=kreska pseudotaktowa	!	!	!	!	!	!	!	!	!
.	.	.	.	.	.	4dd\	-ſe-	.	.	.	.	.	.	.	.
2r	.	4r	.	4r	.	2dd\	-re-	1G	-ſe-	1B	-ſe-	2g\	-ſe-	.	.
.	.	2G/	Mi-	2g\	Mi-	.	.	.	.	.	.	.	.	.	.
*	*ij	*	*	*	*	*	*	*	*	*	*	*	*	*	*
!LO:TX:t=P:problem=kreska pseudotaktowa	!	!	!	!	!	!	!	!	!	!	!	!	!	!LO:TX:t=P:problem=kreska pseudotaktowa	!
2GG/	Mi	.	.	.	.	2dd\	-re	.	.	.	.	4.d\	-re-	2b\	-ſe-
!	!	!	!	!LO:TX:t=P:problem=kreska pseudotaktowa	!	!	!	!	!	!	!	!	!	!	!
.	.	4G/	-ſe-	4g\	-ſe-	.	.	.	.	.	.	.	.	.	.
.	.	.	.	.	.	.	.	.	.	.	.	8e\	.	.	.
=27-	=27-	=27-	=27-	=27-	=27-	=27-	=27-	=27-	=27-	=27-	=27-	=27-	=27-	=27-	=27-
1D	-ſe-	1A	-re-	1f	-re-	1dd	no-	1D	-re-	2d\	-re-	4fny\	-re	1a	-re-
.	.	.	.	.	.	.	.	.	.	.	.	4d\	.	.	.
!	!	!	!	!	!	!	!	!	!	!LO:TX:t=P:problem=kreska pseudotaktowa	!	!	!	!	!
.	.	.	.	.	.	.	.	.	.	2A\	-re	2.a\	no-	.	.
!LO:TX:t=P:problem=kreska pseudotaktowa	!	!LO:TX:t=P:problem=kreska pseudotaktowa	!	!	!	!LO:TX:t=P:problem=kreska pseudotaktowa	!	!LO:TX:t=P:problem=kreska pseudotaktowa	!	!	!	!	!	!	!
1AA	-re-	1A	-re	2e\	-re	1cc	-bis	1A	-re	2.c\	no-	.	.	2a\	-re
*	*	*	*	*	*	*	*	*	*	*	*	*	*	*	*
.	.	.	.	.	.	.	.	.	.	.	.	8g\L	.	.	.
.	.	.	.	.	.	.	.	.	.	.	.	8f\J	.	.	.
!	!	!	!	!	!	!	!	!	!	!	!	!LO:TX:t=P:problem=kreska pseudotaktowa	!	!	!
.	.	.	.	1a\	no-	.	.	.	.	.	.	2e\	-bis	2.ee\	Mi-
.	.	.	.	.	.	.	.	.	.	8B\L	.	.	.	.	.
.	.	.	.	.	.	.	.	.	.	8A\J	.	.	.	.	.
=28-	=28-	=28-	=28-	=28-	=28-	=28-	=28-	=28-	=28-	=28-	=28-	=28-	=28-	=28-	=28-
2.E\	-re	4r	.	.	.	4r	.	1E	no-	2B\	.	1.e	No-	.	.
.	.	4E/	Mi-	.	.	4b\	Mi-	.	.	.	.	.	.	8dd\L	-ſe-
.	.	.	.	.	.	.	.	.	.	.	.	.	.	8cc\J	.
!	!	!LO:TX:t=P:problem=kreska pseudotaktowa	!	!	!	!	!	!	!	!LO:TX:t=P:problem=kreska pseudotaktowa	!	!	!	!LO:TX:t=P:problem=kreska pseudotaktowa	!
.	.	2G/	.	1g	-bis	1ee	-ſe-	.	.	2B\	-bis	.	.	2b\	-re-
!LO:TX:t=P:problem=kreska pseudotaktowa	!	!	!	!	!	!	!	!	!	!	!	!	!	!	!
4D/	no-	.	.	.	.	.	.	.	.	.	.	.	.	.	.
4C/	.	2E/	-ſe-	.	.	.	.	2E\	-bis	2r	.	.	.	2cc\	-re
*	*	*	*	*	*	*	*	*	*Xij	*	*ij	*	*	*	*
4BB/	.	.	.	.	.	.	.	.	.	.	.	.	.	.	.
!	!	!	!	!LO:TX:t=P:problem=kreska pseudotaktowa	!	!	!	!	!	!	!	!	!	!	!
1AA/	.	4E/	-re-	2a\	.	1cc\	-re-	1A\	Mi-	2e\	Mi-	2c/	.	1ee\	no-
!	!	!LO:TX:t=P:problem=kreska pseudotaktowa	!	!	!	!	!	!	!	!	!	!	!	!	!
.	.	4A/	-re	.	.	.	.	.	.	.	.	.	.	.	.
=29-	=29-	=29-	=29-	=29-	=29-	=29-	=29-	=29-	=29-	=29-	=29-	=29- 	=29-	=29-	=29-
*	*	*	*	*	*ij	*	*	*	*	*	*	*	*	*	*
!	!	!	!	!	!	!	!	!	!	!	!	!LO:TX:t=P:problem=po ostatnim dźwięku ozdobna kreska taktowa przypominająca longę 00e	!	!	!
!	!	!	!	!	!	!	!	!	!	!	!	!LO:TX:a:t=4	!	!	!
.	.	2c\	Mi-	2A/	Mi-	.	.	.	.	1E	-ſe-	00el	-bis	.	.
!LO:TX:t=P:problem=kreska pseudotaktowa	!	!LO:TX:t=P:problem=kreska pseudotaktowa	!	!	!	!LO:TX:t=P:problem=kreska pseudotaktowa	!	!LO:TX:t=P:problem=kreska pseudotaktowa	!	!	!	!	!	!	!
2E\	.	2e\	-ſe-	2B/	-ſe-	2b\	-re	2G#X\	-ſe-	.	.	.	.	2ee\	.
0AA	.	4e\	-re-	2.cny\	-re-	0a	no-	2A\	-re-	2A/	-re-	.	.	0cc	.
.	.	4d\	.	.	.	.	.	.	.	.	.	.	.	.	.
!	!	!	!	!	!	!	!	!	!	!LO:TX:t=P:problem=kreska pseudotaktowa	!	!	!	!	!
.	.	4c\	-re	.	.	.	.	2A\	-re	2A/	-re	.	.	.	.
!	!	!LO:TX:t=P:problem=kreska pseudotaktowa	!	!LO:TX:t=P:problem=kreska pseudotaktowa	!	!	!	!	!	!	!	!	!	!	!
.	.	4B\	.	4d\	-re	.	.	.	.	.	.	.	.	.	.
=30-	=30-	=30-	=30-	=30-	=30-	=30-	=30-	=30-	=30-	=30-	=30-	=30-	=30-	=30-	=30-
!	!	!LO:LB:g=original	!	!	!	!	!	!	!	!LO:PB:g=original	!	!	!	!	!
.	.	2A/	no-	2e\	no-	.	.	1AA	no-	2.A/	no-	.	.	.	.
.	.	2E/	.	2A/	.	.	.	.	.	.	.	.	.	.	.
.	.	.	.	.	.	.	.	.	.	4E/	.	.	.	.	.
1EE;>l	-bis	1El	-bis-	1Bl	-bis	1bl	-bis	1El	-bis	1G#Xl	-bis	.	.	1bl	-bis-
*	*Xij	*	*	*	*Xij	*	*Xij	*	*	*	*Xij	*	*	*	*
==	==	==	==	==	==	==	==	==	==	==	==	==	==	==	==
*-	*-	*-	*-	*-	*-	*-	*-	*-	*-	*-	*-	*-	*-	*-	*-
!!!system-decoration: [(s1,s2,s3,s4)][(s5,s6,s7,s8)]
!!!RDF**kern: < = below
!!!RDF**kern: > = above
!!!RDF**kern: l = terminal long
!!!ENC: Marta Chmielewska
!!!END: 2021-08-09
!!!ENC: Anastazja Marusiak
!!!END: 2021-07-15
